X:1
T:Title
%%score { ( 1 3 ) | ( 2 4 ) }
L:1/8
Q:1/4=100
M:4/4
K:Ab
V:1 treble nm="Grand Piano"
V:3 treble 
V:2 bass 
V:4 bass 
V:1
 [Cc]4 [CB]2 [CF]2 | [DA]4 [DG]4 | B2 A2 G2 F2 | [DF]4 [CE]2 z2 | [DE]4 [DF]2 [EG]2 | [EA]4 [Ec]4 | %6
w: George~C.~Stebbins * *||||||
 [=Dc]2 [DB]2 [DA]2 F2 | B6 z2 | [Cc]4 [CB]2 [CF]2 | A4 G4 | d2 [Gc]2 [GB]2 [Ge]2 | %11
w: |||||
 [_Ge]4 [CGA]2 z2 | [DFA]4 [B,FG]2 [B,FA]2 | E2 F2 G2 A2 | B6[K:bass][K:treble] z2 | [A,CA]6 z2 |] %16
w: |||||
V:2
 [A,,E,]4 [A,,E,]2 [A,,A,]2 | [B,,F,]4 [B,,E,]4 | [E,G,D]2 [E,F,D]2 [E,B,D]2 [E,G,D]2 | %3
 [A,,A,]4 [A,,A,]2 z2 | [E,G,]4 [E,A,]2 [D,B,]2 | [C,A,]4 [A,,A,]4 | %6
 [B,,A,]2 [B,,F,]2 [B,,B,]2 [=D,A,B,]2 | [E,D]6 z2 | [A,,E,]4 [A,,E,]2 [A,,A,]2 | %9
 [E,B,D]4 [E,B,D]4 | [E,B,E]2 [E,E]2 [E,D]2 [E,D]2 | [A,C]4 A,,2 z2 | D,4 =D,2 D,2 | %13
 [E,A,C]2 [E,A,C]2 [E,B,D]2 [E,CE]2 | A,2 z2 z4 | A,,6 z2 |] %16
V:3
 x8 | x8 | x8 | x8 | x8 | x8 | x8 | z4 G,2 z2 | x8 | x8 | x8 | x8 | x8 | x8 | %14
 z2[K:bass] F,2 z2[K:treble] [A,CA]2 | x8 |] %16
V:4
 x8 | x8 | x8 | x8 | x8 | x8 | x8 | A,4 z4 | x8 | x8 | x8 | x8 | x8 | x8 | [E,D]4- [E,G,D]2 A,,2 | %15
 x8 |] %16

